src/img/icons/brand-06.svg

<svg width="64" height="64" viewBox="0 0 64 64" fill="none" xmlns="http://www.w3.org/2000/svg">
<path fill-rule="evenodd" clip-rule="evenodd" d="M63 32C63 49.1208 49.1208 63 32 63C14.8792 63 1 49.1208 1 32C1 14.8792 14.8792 0.999999 32 0.999999C49.1208 0.999998 63 14.8792 63 32ZM64 32C64 49.6731 49.6731 64 32 64C14.3269 64 2.17128e-06 49.6731 1.39876e-06 32C6.26248e-07 14.3269 14.3269 -6.26248e-07 32 -1.39876e-06C49.6731 -2.17128e-06 64 14.3269 64 32Z" fill="#1B1B1B"/>
<path fill-rule="evenodd" clip-rule="evenodd" d="M53.1127 11L11.1127 11L11.1127 53H53.1127V11ZM10.1127 10L10.1127 54H54.1127V10L10.1127 10Z" fill="#1B1B1B"/>
<path fill-rule="evenodd" clip-rule="evenodd" d="M60.9804 22C60.4159 36.3896 47.7198 48 32 48C16.2802 48 3.58406 36.3896 3.01959 22L60.9804 22ZM61.9812 22C61.417 37.0008 48.2099 49 32 49C15.7901 49 2.58295 37.0008 2.01878 22C2.0063 21.6681 2 21.3347 2 21L62 21C62 21.3347 61.9937 21.6681 61.9812 22Z" fill="#1B1B1B"/>
</svg>

<svg xmlns="http://www.w3.org/2000/svg" fill="none" viewBox="0 0 64 64"><path fill="#1B1B1B" fill-rule="evenodd" d="M63 32c0 17.12-13.88 31-31 31C14.88 63 1 49.12 1 32 1 14.88 14.88 1 32 1c17.12 0 31 13.88 31 31zm1 0c0 17.673-14.327 32-32 32C14.327 64 0 49.673 0 32 0 14.327 14.327 0 32 0c17.673 0 32 14.327 32 32z" clip-rule="evenodd"/><path fill="#1B1B1B" fill-rule="evenodd" d="M53.113 11h-42v42h42V11zm-43-1v44h44V10h-44z" clip-rule="evenodd"/><path fill="#1B1B1B" fill-rule="evenodd" d="M60.98 22C60.416 36.39 47.72 48 32 48S3.584 36.39 3.02 22h57.96zm1.001 0C61.417 37 48.21 49 32 49S2.583 37 2.019 22A26.614 26.614 0 0 1 2 21h60c0 .335-.006.668-.019 1z" clip-rule="evenodd"/></svg>
